; generated by Slic3r 1.3.0-dev on 2020-06-01 at 16:31:01

; external perimeters extrusion width = 0.40mm (0.57mm^3/s)
; perimeters extrusion width = 0.40mm (1.14mm^3/s)
; infill extrusion width = 0.40mm (2.27mm^3/s)
; solid infill extrusion width = 0.40mm (1.51mm^3/s)
; top infill extrusion width = 0.40mm (0.95mm^3/s)

M190 S85 ; set bed temperature and wait for it to be reached
M104 S240 ; set temperature
G28 ; home all axes
G1 Z10 F3000 ; lift nozzle
G1 F140 E10  ;extrude 1mm of feed stock
G1 Z2 F2000 ; lift nozzle 

; Filament gcode

M109 S240 ; set temperature and wait for it to be reached
G21 ; set units to millimeters
G90 ; use absolute coordinates
M82 ; use absolute distances for extrusion
G92 E0
G1 Z0.100 F4800.000
G1 E-2.00000 F2400.00000
G92 E0
G1 X88.620 Y88.664 F4800.000
G1 E2.00000 F2400.00000
G1 F1200
G1 X89.679 Y87.624 E2.02336
G1 X91.088 Y86.495 E2.05177
G1 X92.610 Y85.526 E2.08016
G1 X94.220 Y84.732 E2.10842
G1 X95.924 Y84.111 E2.13697
G1 X97.577 Y83.704 E2.16375
G1 X97.987 Y83.629 E2.17032
G1 X99.363 Y83.455 E2.19214
G1 X99.779 Y83.426 E2.19871
G1 X101.270 Y83.402 E2.22218
G1 X103.069 Y83.557 E2.25059
G1 X104.839 Y83.905 E2.27898
G1 X106.562 Y84.444 E2.30739
G1 X108.354 Y85.236 E2.33822
G1 X109.826 Y86.095 E2.36504
G1 X111.267 Y87.150 E2.39316
G1 X112.390 Y88.166 E2.41699
G1 X112.817 Y88.596 E2.42652
G1 X113.594 Y89.486 E2.44511
G1 X113.979 Y89.966 E2.45480
G1 X114.649 Y90.927 E2.47324
G1 X114.985 Y91.454 E2.48308
G1 X115.670 Y92.714 E2.50564
G1 X115.825 Y93.042 E2.51136
G1 X116.367 Y94.359 E2.53377
G1 X116.489 Y94.712 E2.53964
G1 X116.882 Y96.070 E2.56189
G1 X116.968 Y96.443 E2.56792
G1 X117.211 Y97.826 E2.59001
G1 X117.257 Y98.216 E2.59620
G1 X117.357 Y99.850 E2.62196
G1 X117.349 Y100.393 E2.63050
G1 X117.257 Y101.784 E2.65244
G1 X117.211 Y102.174 E2.65863
G1 X116.968 Y103.557 E2.68072
G1 X116.882 Y103.930 E2.68675
G1 X116.489 Y105.288 E2.70900
G1 X116.367 Y105.641 E2.71487
G1 X115.825 Y106.958 E2.73728
G1 X115.670 Y107.286 E2.74300
G1 X114.985 Y108.546 E2.76556
G1 X114.801 Y108.847 E2.77112
G1 X113.979 Y110.034 E2.79385
G1 X113.770 Y110.306 E2.79925
G1 X112.817 Y111.404 E2.82213
G1 X112.390 Y111.834 E2.83165
G1 X111.514 Y112.641 E2.85041
G1 X110.984 Y113.068 E2.86111
G1 X109.826 Y113.905 E2.88361
G1 X108.547 Y114.658 E2.90696
G1 X108.117 Y114.879 E2.91457
G1 X106.562 Y115.556 E2.94126
G1 X104.839 Y116.095 E2.96967
G1 X103.069 Y116.443 E2.99807
G1 X101.270 Y116.598 E3.02647
G1 X99.466 Y116.556 E3.05487
G1 X97.677 Y116.319 E3.08327
G1 X95.924 Y115.889 E3.11168
G1 X94.522 Y115.390 E3.13510
G1 X94.221 Y115.268 E3.14022
G1 X92.890 Y114.624 E3.16349
G1 X92.525 Y114.422 E3.17006
G1 X91.088 Y113.505 E3.19689
G1 X89.679 Y112.376 E3.22529
G1 X88.620 Y111.336 E3.24865
G1 X88.339 Y111.027 E3.25522
G1 X87.413 Y109.892 E3.27828
G1 X83.441 Y104.815 E3.37973
G1 X82.643 Y102.500 E3.41826
G1 X82.643 Y97.500 E3.49695
G1 X83.441 Y95.185 E3.53549
G1 X87.413 Y90.108 E3.63693
G1 X88.339 Y88.973 E3.65999
G1 X88.579 Y88.708 E3.66562
G1 X88.886 Y88.934 F4800.000
G1 F1200
G1 X89.938 Y87.900 E3.68884
G1 X91.315 Y86.798 E3.71660
G1 X92.803 Y85.852 E3.74435
G1 X94.302 Y85.112 E3.77066
G1 X94.649 Y84.966 E3.77658
G1 X95.955 Y84.500 E3.79840
G1 X96.316 Y84.393 E3.80432
G1 X97.756 Y84.051 E3.82761
G1 X99.410 Y83.831 E3.85388
G1 X99.786 Y83.804 E3.85980
G1 X101.267 Y83.781 E3.88312
G1 X103.024 Y83.933 E3.91088
G1 X104.754 Y84.274 E3.93863
G1 X106.437 Y84.802 E3.96638
G1 X108.177 Y85.571 E3.99632
G1 X109.627 Y86.417 E4.02274
G1 X111.036 Y87.450 E4.05023
G1 X112.128 Y88.440 E4.07344
G1 X112.532 Y88.845 E4.08243
G1 X113.305 Y89.730 E4.10093
G1 X113.668 Y90.183 E4.11007
G1 X114.335 Y91.139 E4.12842
G1 X114.653 Y91.636 E4.13770
G1 X115.336 Y92.892 E4.16019
G1 X115.475 Y93.187 E4.16533
G1 X116.016 Y94.501 E4.18769
G1 X116.125 Y94.818 E4.19297
G1 X116.518 Y96.173 E4.21518
G1 X116.595 Y96.509 E4.22060
G1 X116.838 Y97.890 E4.24267
G1 X116.879 Y98.241 E4.24823
G1 X116.978 Y99.850 E4.27360
G1 X116.971 Y100.368 E4.28176
G1 X116.879 Y101.759 E4.30369
G1 X116.838 Y102.110 E4.30925
G1 X116.595 Y103.491 E4.33132
G1 X116.518 Y103.827 E4.33674
G1 X116.125 Y105.182 E4.35896
G1 X116.016 Y105.500 E4.36424
G1 X115.475 Y106.813 E4.38659
G1 X115.336 Y107.108 E4.39173
G1 X114.653 Y108.364 E4.41422
G1 X114.488 Y108.635 E4.41922
G1 X113.480 Y110.062 E4.44671
G1 X112.532 Y111.155 E4.46949
G1 X112.128 Y111.560 E4.47849
G1 X111.258 Y112.363 E4.49712
G1 X110.759 Y112.763 E4.50718
G1 X109.627 Y113.583 E4.52918
G1 X108.357 Y114.331 E4.55238
G1 X107.963 Y114.533 E4.55935
G1 X106.437 Y115.198 E4.58554
G1 X104.754 Y115.726 E4.61331
G1 X103.024 Y116.067 E4.64105
G1 X101.267 Y116.219 E4.66881
G1 X99.504 Y116.179 E4.69656
G1 X97.756 Y115.949 E4.72431
G1 X96.043 Y115.529 E4.75207
G1 X94.649 Y115.034 E4.77534
G1 X94.302 Y114.888 E4.78127
G1 X93.055 Y114.283 E4.80309
G1 X92.726 Y114.101 E4.80901
G1 X91.315 Y113.202 E4.83533
G1 X89.938 Y112.100 E4.86309
G1 X88.886 Y111.066 E4.88631
G1 X88.632 Y110.788 E4.89223
G1 X87.711 Y109.659 E4.91516
G1 X83.739 Y104.582 E5.01661
G1 X83.022 Y102.500 E5.05126
G1 X83.022 Y97.500 E5.12995
G1 X83.739 Y95.418 E5.16460
G1 X87.711 Y90.341 E5.26605
G1 X88.632 Y89.212 E5.28899
G1 X88.845 Y88.978 E5.29396
G1 X89.244 Y89.383 F4800.000
G1 F1200
G1 X90.373 Y88.276 E5.32214
G1 X91.706 Y87.219 E5.35246
G1 X93.146 Y86.313 E5.38277
G1 X94.567 Y85.619 E5.41095
G1 X94.786 Y85.524 E5.41519
G1 X96.391 Y84.963 E5.44550
G1 X97.932 Y84.598 E5.47371
G1 X99.737 Y84.376 E5.50611
G1 X101.320 Y84.353 E5.53433
G1 X103.015 Y84.507 E5.56465
G1 X104.682 Y84.844 E5.59496
G1 X106.303 Y85.360 E5.62527
G1 X107.885 Y86.063 E5.65610
G1 X109.377 Y86.934 E5.68690
G1 X110.734 Y87.939 E5.71698
G1 X111.723 Y88.843 E5.74085
G1 X112.061 Y89.174 E5.74928
G1 X113.163 Y90.457 E5.77942
G1 X114.120 Y91.852 E5.80957
G1 X114.921 Y93.342 E5.83972
G1 X115.512 Y94.779 E5.86738
G1 X115.988 Y96.398 E5.89746
G1 X116.287 Y98.060 E5.92754
G1 X116.354 Y98.947 E5.94339
G1 X116.383 Y99.015 E5.94472
G1 X116.479 Y99.118 E5.94723
G1 X116.423 Y99.993 E5.96286
G1 X116.479 Y100.882 E5.97873
G1 X116.383 Y100.985 E5.98125
G1 X116.354 Y101.053 E5.98257
G1 X116.287 Y101.940 E5.99842
G1 X116.020 Y103.462 E6.02595
G1 X115.512 Y105.221 E6.05858
G1 X114.864 Y106.780 E6.08866
G1 X114.052 Y108.260 E6.11874
G1 X113.085 Y109.644 E6.14882
G1 X112.061 Y110.826 E6.17669
G1 X110.734 Y112.061 E6.20898
G1 X109.474 Y113.000 E6.23698
G1 X108.045 Y113.852 E6.26663
G1 X107.748 Y114.003 E6.27256
G1 X106.304 Y114.640 E6.30068
G1 X104.682 Y115.156 E6.33100
G1 X103.015 Y115.493 E6.36131
G1 X101.320 Y115.647 E6.39163
G1 X99.620 Y115.617 E6.42194
G1 X97.932 Y115.402 E6.45225
G1 X96.277 Y115.005 E6.48257
G1 X94.786 Y114.476 E6.51077
G1 X93.251 Y113.743 E6.54108
G1 X93.044 Y113.626 E6.54532
G1 X91.706 Y112.781 E6.57350
G1 X90.373 Y111.724 E6.60382
G1 X89.162 Y110.530 E6.63413
G1 X88.040 Y109.139 E6.66597
G1 X87.123 Y107.706 E6.69627
G1 X86.449 Y106.372 E6.72291
G1 X86.068 Y105.383 E6.74179
G1 X85.957 Y105.307 E6.74418
G1 X85.238 Y105.307 E6.75700
G1 X83.593 Y103.663 E6.79844
G1 X83.593 Y96.337 E6.92896
G1 X85.238 Y94.693 E6.97040
G1 X85.957 Y94.693 E6.98322
G1 X86.068 Y94.617 E6.98561
G1 X86.449 Y93.628 E7.00449
G1 X87.225 Y92.114 E7.03480
G1 X88.088 Y90.790 E7.06296
G1 X89.203 Y89.427 E7.09434
G1 X89.516 Y89.719 F4800.000
G1 F1200
G1 X90.659 Y88.594 E7.12292
G1 X91.956 Y87.567 E7.15240
G1 X93.357 Y86.686 E7.18188
G1 X94.752 Y86.005 E7.20953
G1 X94.938 Y85.925 E7.21315
G1 X96.499 Y85.377 E7.24262
G1 X98.012 Y85.019 E7.27033
G1 X99.753 Y84.805 E7.30158
G1 X101.308 Y84.781 E7.32929
G1 X102.956 Y84.932 E7.35878
G1 X104.577 Y85.260 E7.38825
G1 X106.154 Y85.762 E7.41774
G1 X107.689 Y86.444 E7.44766
G1 X109.145 Y87.294 E7.47771
G1 X110.465 Y88.272 E7.50697
G1 X111.411 Y89.137 E7.52982
G1 X111.744 Y89.463 E7.53812
G1 X112.817 Y90.711 E7.56744
G1 X113.691 Y91.971 E7.59477
G1 X114.529 Y93.516 E7.62609
G1 X115.110 Y94.929 E7.65331
G1 X115.573 Y96.505 E7.68257
G1 X115.863 Y98.121 E7.71184
G1 X115.936 Y99.128 E7.72982
G1 X115.966 Y99.196 E7.73114
G1 X116.040 Y99.275 E7.73308
G1 X115.993 Y99.993 E7.74589
G1 X116.040 Y100.725 E7.75896
G1 X115.966 Y100.804 E7.76089
G1 X115.936 Y100.872 E7.76221
G1 X115.863 Y101.879 E7.78020
G1 X115.573 Y103.495 E7.80946
G1 X115.110 Y105.071 E7.83873
G1 X114.480 Y106.588 E7.86799
G1 X113.691 Y108.029 E7.89726
G1 X112.751 Y109.376 E7.92653
G1 X111.744 Y110.537 E7.95392
G1 X110.465 Y111.728 E7.98506
G1 X109.227 Y112.650 E8.01256
G1 X107.833 Y113.479 E8.04146
G1 X107.571 Y113.613 E8.04669
G1 X106.154 Y114.238 E8.07429
G1 X104.577 Y114.740 E8.10378
G1 X102.956 Y115.069 E8.13326
G1 X101.308 Y115.219 E8.16274
G1 X99.653 Y115.189 E8.19222
G1 X98.012 Y114.981 E8.22171
G1 X96.403 Y114.595 E8.25119
G1 X94.938 Y114.075 E8.27889
G1 X93.446 Y113.362 E8.30836
G1 X93.269 Y113.261 E8.31198
G1 X91.956 Y112.433 E8.33963
G1 X90.659 Y111.406 E8.36912
G1 X89.482 Y110.244 E8.39860
G1 X88.380 Y108.877 E8.42988
G1 X87.490 Y107.483 E8.45935
G1 X86.794 Y106.094 E8.48704
G1 X86.365 Y104.955 E8.50872
G1 X86.254 Y104.879 E8.51111
G1 X85.415 Y104.879 E8.52606
G1 X84.022 Y103.485 E8.56117
G1 X84.022 Y96.515 E8.68537
G1 X85.415 Y95.121 E8.72048
G1 X86.254 Y95.121 E8.73543
G1 X86.365 Y95.045 E8.73782
G1 X86.794 Y93.906 E8.75950
G1 X87.537 Y92.428 E8.78899
G1 X88.437 Y91.039 E8.81847
G1 X89.475 Y89.763 E8.84778
G1 X89.801 Y90.042 F4800.000
G1 F1200
G1 X90.946 Y88.913 E8.87644
G1 X92.207 Y87.915 E8.90509
G1 X93.568 Y87.059 E8.93374
G1 X94.936 Y86.392 E8.96086
G1 X96.607 Y85.792 E8.99249
G1 X98.092 Y85.440 E9.01969
G1 X99.769 Y85.233 E9.04978
G1 X101.295 Y85.210 E9.07698
G1 X102.897 Y85.356 E9.10564
G1 X104.472 Y85.675 E9.13429
G1 X106.004 Y86.164 E9.16294
G1 X107.492 Y86.825 E9.19195
G1 X108.913 Y87.655 E9.22126
G1 X110.195 Y88.606 E9.24971
G1 X111.119 Y89.451 E9.27202
G1 X111.428 Y89.752 E9.27970
G1 X112.471 Y90.964 E9.30820
G1 X113.330 Y92.203 E9.33506
G1 X114.137 Y93.689 E9.36519
G1 X114.708 Y95.079 E9.39197
G1 X115.157 Y96.611 E9.42042
G1 X115.439 Y98.183 E9.44887
G1 X115.518 Y99.309 E9.46898
G1 X115.548 Y99.377 E9.47031
G1 X115.600 Y99.433 E9.47167
G1 X115.564 Y99.993 E9.48167
G1 X115.600 Y100.567 E9.49192
G1 X115.548 Y100.623 E9.49327
G1 X115.518 Y100.691 E9.49460
G1 X115.439 Y101.817 E9.51471
G1 X115.157 Y103.389 E9.54316
G1 X114.708 Y104.921 E9.57162
G1 X114.097 Y106.396 E9.60007
G1 X113.330 Y107.797 E9.62852
G1 X112.417 Y109.107 E9.65697
G1 X111.428 Y110.248 E9.68388
G1 X110.259 Y111.340 E9.71238
G1 X109.920 Y111.607 E9.72006
G1 X108.913 Y112.345 E9.74233
G1 X107.621 Y113.106 E9.76903
G1 X107.395 Y113.222 E9.77357
G1 X106.005 Y113.836 E9.80065
G1 X104.472 Y114.325 E9.82930
G1 X102.896 Y114.644 E9.85795
G1 X101.295 Y114.790 E9.88660
G1 X99.687 Y114.762 E9.91525
G1 X98.092 Y114.560 E9.94390
G1 X96.528 Y114.185 E9.97256
G1 X95.091 Y113.674 E9.99974
G1 X93.494 Y112.897 E10.03138
G1 X92.207 Y112.085 E10.05850
G1 X90.946 Y111.087 E10.08715
G1 X89.801 Y109.958 E10.11580
G1 X88.738 Y108.641 E10.14596
G1 X87.911 Y107.362 E10.17310
G1 X87.223 Y106.002 E10.20026
G1 X86.662 Y104.526 E10.22839
G1 X86.551 Y104.450 E10.23077
G1 X85.593 Y104.450 E10.24786
G1 X84.450 Y103.308 E10.27664
G1 X84.450 Y96.692 E10.39451
G1 X85.593 Y95.550 E10.42330
G1 X86.551 Y95.550 E10.44038
G1 X86.662 Y95.474 E10.44277
G1 X87.188 Y94.075 E10.46940
G1 X87.911 Y92.638 E10.49806
G1 X88.785 Y91.289 E10.52671
G1 X89.762 Y90.088 E10.55429
G1 X90.088 Y90.366 F4800.000
G1 F1200
G1 X91.282 Y89.189 E10.58416
G1 X92.457 Y88.263 E10.61083
G1 X93.836 Y87.402 E10.63979
G1 X95.184 Y86.750 E10.66646
G1 X96.654 Y86.225 E10.69428
G1 X98.172 Y85.861 E10.72211
G1 X99.785 Y85.661 E10.75105
G1 X101.282 Y85.638 E10.77774
G1 X102.837 Y85.781 E10.80556
G1 X104.367 Y86.091 E10.83338
G1 X105.855 Y86.565 E10.86120
G1 X107.296 Y87.206 E10.88930
G1 X108.680 Y88.015 E10.91787
G1 X109.926 Y88.939 E10.94550
G1 X110.827 Y89.765 E10.96728
G1 X111.111 Y90.041 E10.97434
G1 X112.125 Y91.217 E11.00202
G1 X112.970 Y92.435 E11.02842
G1 X113.745 Y93.862 E11.05736
G1 X114.307 Y95.229 E11.08369
G1 X114.742 Y96.718 E11.11133
G1 X115.014 Y98.245 E11.13897
G1 X115.101 Y99.490 E11.16121
G1 X115.160 Y99.590 E11.16329
G1 X115.134 Y99.993 E11.17048
G1 X115.160 Y100.410 E11.17791
G1 X115.101 Y100.510 E11.17999
G1 X115.014 Y101.755 E11.20223
G1 X114.742 Y103.282 E11.22987
G1 X114.307 Y104.771 E11.25751
G1 X113.714 Y106.204 E11.28514
G1 X112.970 Y107.565 E11.31278
G1 X112.083 Y108.838 E11.34042
G1 X111.111 Y109.959 E11.36686
G1 X109.976 Y111.019 E11.39453
G1 X109.664 Y111.263 E11.40159
G1 X108.680 Y111.985 E11.42333
G1 X107.218 Y112.832 E11.45344
G1 X105.855 Y113.435 E11.47999
G1 X104.367 Y113.909 E11.50782
G1 X102.837 Y114.219 E11.53563
G1 X101.282 Y114.362 E11.56345
G1 X99.721 Y114.335 E11.59127
G1 X98.172 Y114.139 E11.61909
G1 X96.654 Y113.775 E11.64691
G1 X95.243 Y113.274 E11.67359
G1 X93.720 Y112.532 E11.70378
G1 X92.457 Y111.737 E11.73037
G1 X91.233 Y110.768 E11.75819
G1 X90.076 Y109.620 E11.78722
G1 X89.134 Y108.462 E11.81382
G1 X88.318 Y107.208 E11.84048
G1 X87.582 Y105.758 E11.86946
G1 X87.054 Y104.353 E11.89620
G1 X86.987 Y104.112 E11.90066
G1 X86.871 Y104.021 E11.90328
G1 X85.770 Y104.021 E11.92290
G1 X84.879 Y103.130 E11.94536
G1 X84.879 Y96.870 E12.05691
G1 X85.770 Y95.979 E12.07936
G1 X86.871 Y95.979 E12.09898
G1 X86.987 Y95.888 E12.10160
G1 X87.054 Y95.647 E12.10606
G1 X87.582 Y94.243 E12.13280
G1 X88.285 Y92.848 E12.16062
G1 X89.134 Y91.538 E12.18844
G1 X90.050 Y90.413 E12.21429
G1 X90.382 Y90.684 F4800.000
G1 F1200
G1 X91.554 Y89.520 E12.24373
G1 X92.707 Y88.611 E12.26989
G1 X94.031 Y87.784 E12.29770
G1 X95.353 Y87.144 E12.32387
G1 X96.779 Y86.634 E12.35086
G1 X98.253 Y86.283 E12.37785
G1 X99.801 Y86.090 E12.40565
G1 X101.270 Y86.067 E12.43182
G1 X102.778 Y86.205 E12.45881
G1 X104.262 Y86.507 E12.48580
G1 X105.705 Y86.967 E12.51279
G1 X107.100 Y87.587 E12.53998
G1 X108.448 Y88.375 E12.56780
G1 X109.656 Y89.273 E12.59462
G1 X110.535 Y90.079 E12.61587
G1 X110.795 Y90.330 E12.62231
G1 X111.780 Y91.471 E12.64916
G1 X112.609 Y92.667 E12.67509
G1 X113.353 Y94.036 E12.70286
G1 X113.905 Y95.379 E12.72874
G1 X114.327 Y96.824 E12.75556
G1 X114.590 Y98.307 E12.78239
G1 X114.683 Y99.671 E12.80676
G1 X114.721 Y99.748 E12.80828
G1 X114.705 Y99.993 E12.81266
G1 X114.721 Y100.252 E12.81728
G1 X114.683 Y100.329 E12.81880
G1 X114.590 Y101.693 E12.84317
G1 X114.327 Y103.176 E12.86999
G1 X113.905 Y104.621 E12.89682
G1 X113.331 Y106.012 E12.92364
G1 X112.609 Y107.333 E12.95046
G1 X111.749 Y108.569 E12.97729
G1 X110.795 Y109.670 E13.00325
G1 X109.692 Y110.697 E13.03010
G1 X109.408 Y110.920 E13.03654
G1 X108.448 Y111.625 E13.05776
G1 X107.042 Y112.441 E13.08673
G1 X105.706 Y113.033 E13.11276
G1 X104.262 Y113.494 E13.13976
G1 X102.778 Y113.795 E13.16674
G1 X101.270 Y113.933 E13.19373
G1 X99.755 Y113.907 E13.22072
G1 X98.253 Y113.717 E13.24771
G1 X96.779 Y113.366 E13.27470
G1 X95.396 Y112.873 E13.30087
G1 X93.945 Y112.168 E13.32960
G1 X92.707 Y111.389 E13.35566
G1 X91.519 Y110.450 E13.38265
G1 X90.407 Y109.347 E13.41056
G1 X89.483 Y108.213 E13.43663
G1 X88.682 Y106.983 E13.46278
G1 X87.977 Y105.589 E13.49060
G1 X87.459 Y104.212 E13.51681
G1 X87.320 Y103.683 E13.52657
G1 X87.204 Y103.593 E13.52918
G1 X85.948 Y103.593 E13.55157
G1 X85.308 Y102.953 E13.56770
G1 X85.308 Y97.047 E13.67293
G1 X85.948 Y96.407 E13.68906
G1 X87.204 Y96.407 E13.71144
G1 X87.320 Y96.317 E13.71406
G1 X87.459 Y95.788 E13.72382
G1 X87.977 Y94.411 E13.75003
G1 X88.658 Y93.058 E13.77702
G1 X89.483 Y91.787 E13.80400
G1 X90.344 Y90.730 E13.82829
G1 X90.676 Y91.001 F4800.000
G1 F1200
G1 X90.779 Y90.878 E13.83116
G1 X91.827 Y89.851 E13.85731
G1 X92.958 Y88.959 E13.88297
G1 X94.226 Y88.165 E13.90962
G1 X95.522 Y87.538 E13.93528
G1 X96.905 Y87.044 E13.96144
G1 X98.333 Y86.704 E13.98760
G1 X99.817 Y86.518 E14.01425
G1 X101.257 Y86.495 E14.03991
G1 X102.719 Y86.630 E14.06607
G1 X104.158 Y86.922 E14.09223
G1 X105.556 Y87.369 E14.11839
G1 X106.904 Y87.968 E14.14467
G1 X108.215 Y88.735 E14.17174
G1 X109.387 Y89.606 E14.19775
G1 X110.243 Y90.393 E14.21847
G1 X110.478 Y90.619 E14.22429
G1 X111.434 Y91.724 E14.25031
G1 X112.248 Y92.898 E14.27578
